awards/beast.svg

<svg width="50" height="50" xmlns="http://www.w3.org/2000/svg"><path d="M50 25c0 13.807-11.193 25-25 25S0 38.807 0 25 11.193 0 25 0s25 11.193 25 25zm-13.5 0H29V10h-7.5v15H14v7.5h7.5V40H29v-7.5h7.5z" style="fill:#d40808"/></svg>

<?xml version="1.0" encoding="utf-8"?>
<svg width="50" height="50" xmlns="http://www.w3.org/2000/svg">
  <path d="M 50 25 C 50 38.807 38.807 50 25 50 C 11.193 50 0 38.807 0 25 C 0 11.193 11.193 0 25 0 C 38.807 0 50 11.193 50 25 Z M 36.5 25 L 29 25 L 29 10 L 21.5 10 L 21.5 25 L 14 25 L 14 32.5 L 21.5 32.5 L 21.5 40 L 29 40 L 29 32.5 L 36.5 32.5 Z" style="fill: rgb(212, 8, 8);"/>
</svg>
